public/img/tom.svg

<svg width="378" height="512" fill="none" xmlns="http://www.w3.org/2000/svg"><path d="M188.708 383.425c-66.759 0-121.072 54.314-121.072 121.075h242.147c-.001-66.761-54.314-121.075-121.075-121.075z" fill="#F2F6FF"/><path d="M188.708 383.425c-66.759 0-121.072 54.314-121.072 121.075h66.073v-58.952c0-2.954.857-5.853 2.502-8.306 17.47-26.05 44.767-44.98 76.552-51.413a121.167 121.167 0 00-24.055-2.404z" fill="#B9C7E5"/><path d="M188.709 456.61c8.284 0 15-6.716 15-15 0-8.284-6.716-15-15-15-8.284 0-15 6.716-15 15 0 8.284 6.716 15 15 15zM188.709 504.5c8.284 0 15-6.716 15-15 0-8.284-6.716-15-15-15-8.284 0-15 6.716-15 15 0 8.284 6.716 15 15 15z" fill="#B9C7E5"/><path d="M43.581 215.048c-19.927 0-36.081 16.154-36.081 36.081 0 19.928 16.154 36.082 36.081 36.082 19.927 0 36.082-16.154 36.082-36.082 0-19.927-16.155-36.081-36.082-36.081zM333.837 215.048c-19.927 0-36.082 16.154-36.082 36.081 0 19.928 16.154 36.082 36.082 36.082s36.081-16.154 36.081-36.082c0-19.927-16.154-36.081-36.081-36.081z" fill="#ECCBA9"/><path d="M229.393 390.466c60.347-17.591 104.443-73.311 104.443-139.337C333.836 170.976 268.86 106 188.707 106c-80.15 0-145.127 64.976-145.127 145.129 0 66.026 44.097 121.746 104.442 139.337a145.172 145.172 0 0040.684 5.789c14.127 0 27.777-2.026 40.687-5.789z" fill="#FFE3C7"/><path d="M91.69 251.129c0-71.957 52.372-131.671 121.073-143.133A146.02 146.02 0 00188.708 106c-80.15 0-145.127 64.976-145.127 145.129 0 80.15 64.977 145.127 145.127 145.127 8.196 0 16.229-.69 24.055-1.996C144.062 382.798 91.69 323.084 91.69 251.129z" fill="#ECCBA9"/><path d="M225.502 215.319c25.031 36.415 78.868 36.384 103.879.005C313.437 152.488 256.504 106 188.708 106c-67.792 0-124.725 46.486-140.67 109.322 54.203 36.814 124.679 35.898 177.464-.003z" fill="#E37858"/><path d="M212.763 107.996l.014-.003A146.082 146.082 0 00188.708 106c-67.792 0-124.725 46.486-140.67 109.322a157.597 157.597 0 0044.415 20.928c6.64-65.18 56.406-117.593 120.31-128.254z" fill="#DD6642"/><path d="M299.393 7.502H78.04c-16.569 0-30 13.432-30 30v177.819c89.459-38.985 191.426-39.186 281.353 0V37.502c0-16.569-13.431-30-30-30z" fill="#F2F6FF"/><path d="M128.511 7.5H78.033c-16.569 0-30 13.431-30 30v177.819a352.14 352.14 0 0154.175-18.525V71.001A89.8 89.8 0 01128.511 7.5z" fill="#B9C7E5"/><path d="M102.208 56.001c-8.284 0-15 6.716-15 15v80c0 8.284 6.716 15 15 15 8.284 0 15-6.716 15-15v-80c0-8.284-6.716-15-15-15zM188.709 56.001c-8.284 0-15 6.716-15 15v80c0 8.284 6.716 15 15 15 8.284 0 15-6.716 15-15v-80c0-8.284-6.716-15-15-15zM275.21 56.001c-8.284 0-15 6.716-15 15v80c0 8.284 6.716 15 15 15 8.284 0 15-6.716 15-15v-80c0-8.284-6.715-15-15-15z" fill="#B9C7E5"/><path d="M139.209 297.988c-.031 9.896-10.13 17.886-22.556 17.847-12.426-.039-22.475-8.092-22.444-17.988.031-9.896 10.13-17.886 22.556-17.847 12.426.038 22.475 8.092 22.444 17.988zM238.209 298.279c-.031 9.896 10.017 17.949 22.444 17.988 12.426.039 22.525-7.951 22.556-17.847.031-9.896-10.017-17.95-22.444-17.988-12.426-.039-22.525 7.951-22.556 17.847z" fill="#FFC8AB"/><path d="M124.709 260.5a7.5 7.5 0 00-7.5 7.5v10a7.5 7.5 0 0015 0v-10a7.5 7.5 0 00-7.5-7.5zM252.709 260.5a7.5 7.5 0 00-7.5 7.5v10a7.5 7.5 0 0015 0v-10a7.5 7.5 0 00-7.5-7.5zM208.444 289.234a7.498 7.498 0 00-10.001 3.531c-1.666 3.484-5.291 5.735-9.234 5.735-3.943 0-7.568-2.251-9.234-5.735a7.5 7.5 0 10-13.532 6.47c4.144 8.666 13.08 14.265 22.766 14.265 9.686 0 18.623-5.599 22.766-14.265a7.5 7.5 0 00-3.531-10.001z" fill="#012477"/><path d="M334.995 294.681c23.495-.618 42.422-19.91 42.422-43.552 0-23.005-17.92-41.891-40.532-43.463V37.5c0-20.678-16.822-37.5-37.5-37.5H78.033c-20.678 0-37.5 16.822-37.5 37.5v170.166C17.921 209.238 0 228.124 0 251.129c0 23.628 18.905 42.912 42.382 43.551 12.958 43.685 44.82 78.778 85.655 96.5-41.26 22.157-67.901 65.599-67.901 113.32a7.5 7.5 0 007.5 7.5h242.146a7.5 7.5 0 007.5-7.5c0-47.728-26.649-91.175-67.918-113.329 41.004-17.827 72.704-53.148 85.631-96.49zm27.423-43.552c0 14.093-10.256 25.829-23.695 28.155a152.801 152.801 0 002.614-28.155c0-9.465-.875-18.897-2.602-28.153 13.433 2.331 23.683 14.064 23.683 28.153zM55.533 37.5c0-12.407 10.093-22.5 22.5-22.5h221.353c12.406 0 22.5 10.093 22.5 22.5v166.566a359.754 359.754 0 00-77.393-21.213 7.496 7.496 0 00-8.572 6.247 7.5 7.5 0 006.247 8.572 344.726 344.726 0 0175.036 20.685c-24.486 25.137-65.748 21.481-85.521-7.286a7.5 7.5 0 00-10.398-1.953c-47.273 32.153-107.31 34.655-156.69 7.528 48.833-18.89 99.365-25.745 148.41-22.284 4.116.288 7.718-2.822 8.009-6.954a7.5 7.5 0 00-6.954-8.009c-53.56-3.781-107.514 4.295-158.528 24.665V37.5h.001zm125.676 452c0-4.136 3.364-7.5 7.5-7.5s7.5 3.364 7.5 7.5-3.364 7.5-7.5 7.5-7.5-3.364-7.5-7.5zm120.824 7.5h-92.114a22.38 22.38 0 001.29-7.5c0-12.407-10.093-22.5-22.5-22.5s-22.5 10.093-22.5 22.5c0 2.629.458 5.153 1.29 7.5H75.385c2.927-44.028 31.448-82.825 73.016-98.658a151.734 151.734 0 0012.081 2.793 129.684 129.684 0 00-30.502 31.925c-2.47 3.69-3.77 8-3.77 12.49v28.95c0 4.14 3.36 7.5 7.5 7.5 4.14 0 7.5-3.36 7.5-7.5v-28.95c0-1.51.43-2.93 1.23-4.13a114.5 114.5 0 0142.156-37.724c15.078.402 29.961-1.389 44.422-5.353 41.567 15.832 70.088 54.63 73.015 98.657zM188.708 388.755c-69.475 0-128.202-51.917-136.605-120.763a7.497 7.497 0 00-8.354-6.536 7.5 7.5 0 00-6.536 8.354c.39 3.192.885 6.348 1.467 9.472C25.248 276.95 15 265.218 15 251.13c0-14.089 10.25-25.822 23.682-28.153a153.198 153.198 0 00-2.072 15.369 7.502 7.502 0 007.483 8.122c3.86 0 7.14-2.962 7.466-6.879.339-4.076.869-8.149 1.571-12.186 52.857 31.028 118.76 30.126 170.648-2.021 25.805 30.274 71.681 33.251 101.182 6.349a138.795 138.795 0 011.378 19.399c-.001 75.887-61.741 137.625-137.63 137.625z" fill="#012477"/><path d="M166.209 441.61c0 12.407 10.093 22.5 22.5 22.5s22.5-10.093 22.5-22.5-10.093-22.5-22.5-22.5-22.5 10.093-22.5 22.5zm22.5-7.5c4.136 0 7.5 3.364 7.5 7.5s-3.364 7.5-7.5 7.5-7.5-3.364-7.5-7.5 3.364-7.5 7.5-7.5zM102.208 48.501a7.5 7.5 0 000 15c4.136 0 7.5 3.364 7.5 7.5v80c0 2.368-1.099 4.552-3.016 5.991a7.5 7.5 0 009.008 11.994c5.725-4.299 9.008-10.855 9.008-17.985v-80c0-12.407-10.094-22.5-22.5-22.5zM196.209 71.001v80c0 2.368-1.099 4.552-3.016 5.991a7.5 7.5 0 009.008 11.994c5.725-4.299 9.008-10.855 9.008-17.985v-80c0-12.407-10.093-22.5-22.5-22.5a7.5 7.5 0 000 15c4.136 0 7.5 3.364 7.5 7.5zM275.211 63.501c4.136 0 7.5 3.364 7.5 7.5v80c0 2.368-1.1 4.552-3.016 5.992a7.5 7.5 0 109.008 11.993c5.725-4.3 9.008-10.855 9.008-17.985v-80c0-12.407-10.094-22.5-22.5-22.5a7.5 7.5 0 00-7.5 7.5 7.5 7.5 0 007.5 7.5z" fill="#012477"/></svg>

<svg width="378" height="512" viewBox="0 0 378 512" fill="none" xmlns="http://www.w3.org/2000/svg">
<path d="M188.708 383.425C121.949 383.425 67.6357 437.739 67.6357 504.5H309.783C309.782 437.739 255.469 383.425 188.708 383.425Z" fill="#F2F6FF"/>
<path d="M188.708 383.425C121.949 383.425 67.6357 437.739 67.6357 504.5H133.709V445.548C133.709 442.594 134.566 439.695 136.211 437.242C153.681 411.192 180.978 392.262 212.763 385.829C204.986 384.255 196.942 383.425 188.708 383.425Z" fill="#B9C7E5"/>
<path d="M188.709 456.61C196.993 456.61 203.709 449.894 203.709 441.61C203.709 433.326 196.993 426.61 188.709 426.61C180.425 426.61 173.709 433.326 173.709 441.61C173.709 449.894 180.425 456.61 188.709 456.61Z" fill="#B9C7E5"/>
<path d="M188.709 504.5C196.993 504.5 203.709 497.784 203.709 489.5C203.709 481.216 196.993 474.5 188.709 474.5C180.425 474.5 173.709 481.216 173.709 489.5C173.709 497.784 180.425 504.5 188.709 504.5Z" fill="#B9C7E5"/>
<path d="M43.581 215.048C23.654 215.048 7.5 231.202 7.5 251.129C7.5 271.057 23.654 287.211 43.581 287.211C63.508 287.211 79.663 271.057 79.663 251.129C79.663 231.202 63.508 215.048 43.581 215.048Z" fill="#ECCBA9"/>
<path d="M333.837 215.048C313.91 215.048 297.755 231.202 297.755 251.129C297.755 271.057 313.909 287.211 333.837 287.211C353.765 287.211 369.918 271.057 369.918 251.129C369.918 231.202 353.764 215.048 333.837 215.048Z" fill="#ECCBA9"/>
<path d="M229.393 390.466C289.74 372.875 333.836 317.155 333.836 251.129C333.836 170.976 268.86 106 188.707 106C108.557 106 43.5801 170.976 43.5801 251.129C43.5801 317.155 87.6771 372.875 148.022 390.466C160.932 394.229 174.582 396.255 188.706 396.255C202.833 396.255 216.483 394.229 229.393 390.466Z" fill="#FFE3C7"/>
<path d="M91.6901 251.129C91.6901 179.172 144.062 119.458 212.763 107.996C204.938 106.69 196.904 106 188.708 106C108.558 106 43.5811 170.976 43.5811 251.129C43.5811 331.279 108.558 396.256 188.708 396.256C196.904 396.256 204.937 395.566 212.763 394.26C144.062 382.798 91.6901 323.084 91.6901 251.129Z" fill="#ECCBA9"/>
<path d="M225.502 215.319C250.533 251.734 304.37 251.703 329.381 215.324C313.437 152.488 256.504 106 188.708 106C120.916 106 63.9831 152.486 48.0371 215.322C102.241 252.136 172.717 251.22 225.502 215.319Z" fill="#E37858"/>
<path d="M212.763 107.996L212.777 107.993C204.948 106.686 196.908 106 188.708 106C120.916 106 63.9831 152.486 48.0371 215.322C61.9591 224.777 76.9591 231.725 92.4531 236.25C99.0921 171.07 148.859 118.657 212.763 107.996Z" fill="#DD6642"/>
<path d="M299.393 7.50195C297.176 7.50195 80.265 7.50195 78.04 7.50195C61.471 7.50195 48.04 20.934 48.04 37.502V215.321C137.499 176.336 239.466 176.135 329.393 215.321V37.502C329.393 20.933 315.962 7.50195 299.393 7.50195Z" fill="#F2F6FF"/>
<path d="M128.511 7.5H78.0332C61.4642 7.5 48.0332 20.931 48.0332 37.5V215.319C65.6802 207.629 83.8012 201.459 102.208 196.794V71.001C102.208 47.183 111.669 24.341 128.511 7.5Z" fill="#B9C7E5"/>
<path d="M102.208 56.001C93.9242 56.001 87.2082 62.717 87.2082 71.001V151.001C87.2082 159.285 93.9242 166.001 102.208 166.001C110.492 166.001 117.208 159.285 117.208 151.001V71.001C117.208 62.717 110.492 56.001 102.208 56.001Z" fill="#B9C7E5"/>
<path d="M188.709 56.001C180.425 56.001 173.709 62.717 173.709 71.001V151.001C173.709 159.285 180.425 166.001 188.709 166.001C196.993 166.001 203.709 159.285 203.709 151.001V71.001C203.709 62.717 196.993 56.001 188.709 56.001Z" fill="#B9C7E5"/>
<path d="M275.21 56.001C266.926 56.001 260.21 62.717 260.21 71.001V151.001C260.21 159.285 266.926 166.001 275.21 166.001C283.494 166.001 290.21 159.285 290.21 151.001V71.001C290.21 62.717 283.495 56.001 275.21 56.001Z" fill="#B9C7E5"/>
<path d="M139.209 297.988C139.178 307.884 129.079 315.874 116.653 315.835C104.227 315.796 94.1781 307.743 94.2091 297.847C94.2401 287.951 104.339 279.961 116.765 280C129.191 280.038 139.24 288.092 139.209 297.988Z" fill="#FFC8AB"/>
<path d="M238.209 298.279C238.178 308.175 248.226 316.228 260.653 316.267C273.079 316.306 283.178 308.316 283.209 298.42C283.24 288.524 273.192 280.47 260.765 280.432C248.339 280.393 238.24 288.383 238.209 298.279Z" fill="#FFC8AB"/>
<path d="M124.709 260.5C120.567 260.5 117.209 263.858 117.209 268V278C117.209 282.142 120.567 285.5 124.709 285.5C128.851 285.5 132.209 282.142 132.209 278V268C132.209 263.858 128.851 260.5 124.709 260.5Z" fill="#012477"/>
<path d="M252.709 260.5C248.567 260.5 245.209 263.858 245.209 268V278C245.209 282.142 248.567 285.5 252.709 285.5C256.851 285.5 260.209 282.142 260.209 278V268C260.209 263.858 256.851 260.5 252.709 260.5Z" fill="#012477"/>
<path d="M208.444 289.234C204.706 287.446 200.229 289.028 198.443 292.765C196.777 296.249 193.152 298.5 189.209 298.5C185.266 298.5 181.641 296.249 179.975 292.765C178.189 289.028 173.71 287.447 169.974 289.234C166.237 291.021 164.656 295.499 166.443 299.235C170.587 307.901 179.523 313.5 189.209 313.5C198.895 313.5 207.832 307.901 211.975 299.235C213.762 295.499 212.181 291.021 208.444 289.234Z" fill="#012477"/>
<path d="M334.995 294.681C358.49 294.063 377.417 274.771 377.417 251.129C377.417 228.124 359.497 209.238 336.885 207.666V37.5C336.885 16.822 320.063 0 299.385 0H78.033C57.355 0 40.533 16.822 40.533 37.5V207.666C17.921 209.238 0 228.124 0 251.129C0 274.757 18.905 294.041 42.382 294.68C55.34 338.365 87.202 373.458 128.037 391.18C86.777 413.337 60.136 456.779 60.136 504.5C60.136 508.642 63.494 512 67.636 512H309.782C313.925 512 317.282 508.642 317.282 504.5C317.282 456.772 290.633 413.325 249.364 391.171C290.368 373.344 322.068 338.023 334.995 294.681ZM362.418 251.129C362.418 265.222 352.162 276.958 338.723 279.284C340.433 270.155 341.337 260.746 341.337 251.129C341.337 241.664 340.462 232.232 338.735 222.976C352.168 225.307 362.418 237.04 362.418 251.129ZM55.533 37.5C55.533 25.093 65.626 15 78.033 15H299.386C311.792 15 321.886 25.093 321.886 37.5V204.066C296.973 194.136 270.99 187.011 244.493 182.853C240.399 182.208 236.563 185.007 235.921 189.1C235.279 193.192 238.075 197.03 242.168 197.672C267.869 201.705 293.063 208.658 317.204 218.357C292.718 243.494 251.456 239.838 231.683 211.071C229.346 207.67 224.699 206.797 221.285 209.118C174.012 241.271 113.975 243.773 64.595 216.646C113.428 197.756 163.96 190.901 213.005 194.362C217.121 194.65 220.723 191.54 221.014 187.408C221.305 183.276 218.192 179.69 214.06 179.399C160.5 175.618 106.546 183.694 55.532 204.064V37.5H55.533ZM181.209 489.5C181.209 485.364 184.573 482 188.709 482C192.845 482 196.209 485.364 196.209 489.5C196.209 493.636 192.845 497 188.709 497C184.573 497 181.209 493.636 181.209 489.5ZM302.033 497H209.919C210.752 494.653 211.209 492.129 211.209 489.5C211.209 477.093 201.116 467 188.709 467C176.302 467 166.209 477.093 166.209 489.5C166.209 492.129 166.667 494.653 167.499 497H75.385C78.312 452.972 106.833 414.175 148.401 398.342C152.37 399.429 156.397 400.368 160.482 401.135C148.615 409.924 138.261 420.717 129.98 433.06C127.51 436.75 126.21 441.06 126.21 445.55V474.5C126.21 478.64 129.57 482 133.71 482C137.85 482 141.21 478.64 141.21 474.5V445.55C141.21 444.04 141.64 442.62 142.44 441.42C153.105 425.515 167.662 412.512 184.596 403.696C199.674 404.098 214.557 402.307 229.018 398.343C270.585 414.175 299.106 452.973 302.033 497ZM188.708 388.755C119.233 388.755 60.506 336.838 52.103 267.992C51.601 263.881 47.867 260.954 43.749 261.456C39.637 261.958 36.711 265.698 37.213 269.81C37.603 273.002 38.098 276.158 38.68 279.282C25.248 276.95 15 265.218 15 251.13C15 237.041 25.25 225.308 38.682 222.977C37.734 228.06 37.038 233.201 36.61 238.346C36.267 242.473 39.335 246.098 43.463 246.442C43.674 246.46 43.884 246.468 44.093 246.468C47.953 246.468 51.233 243.506 51.559 239.589C51.898 235.513 52.428 231.44 53.13 227.403C105.987 258.431 171.89 257.529 223.778 225.382C249.583 255.656 295.459 258.633 324.96 231.731C325.865 238.141 326.338 244.625 326.338 251.13C326.337 327.017 264.597 388.755 188.708 388.755Z" fill="#012477"/>
<path d="M166.209 441.61C166.209 454.017 176.302 464.11 188.709 464.11C201.116 464.11 211.209 454.017 211.209 441.61C211.209 429.203 201.116 419.11 188.709 419.11C176.302 419.11 166.209 429.203 166.209 441.61ZM188.709 434.11C192.845 434.11 196.209 437.474 196.209 441.61C196.209 445.746 192.845 449.11 188.709 449.11C184.573 449.11 181.209 445.746 181.209 441.61C181.209 437.474 184.573 434.11 188.709 434.11Z" fill="#012477"/>
<path d="M102.208 48.501C98.066 48.501 94.708 51.859 94.708 56.001C94.708 60.143 98.066 63.501 102.208 63.501C106.344 63.501 109.708 66.865 109.708 71.001V151.001C109.708 153.369 108.609 155.553 106.692 156.992C103.38 159.48 102.712 164.181 105.199 167.493C107.687 170.807 112.39 171.473 115.7 168.986C121.425 164.687 124.708 158.131 124.708 151.001V71.001C124.708 58.594 114.614 48.501 102.208 48.501Z" fill="#012477"/>
<path d="M196.209 71.001V151.001C196.209 153.369 195.11 155.553 193.193 156.992C189.881 159.48 189.213 164.181 191.7 167.493C194.188 170.807 198.891 171.473 202.201 168.986C207.926 164.687 211.209 158.131 211.209 151.001V71.001C211.209 58.594 201.116 48.501 188.709 48.501C184.567 48.501 181.209 51.859 181.209 56.001C181.209 60.143 184.567 63.501 188.709 63.501C192.845 63.501 196.209 66.865 196.209 71.001Z" fill="#012477"/>
<path d="M275.211 63.501C279.347 63.501 282.711 66.865 282.711 71.001V151.001C282.711 153.369 281.611 155.553 279.695 156.993C276.382 159.481 275.715 164.182 278.202 167.494C279.676 169.456 281.927 170.49 284.205 170.49C285.772 170.49 287.353 170 288.703 168.986C294.428 164.686 297.711 158.131 297.711 151.001V71.001C297.711 58.594 287.617 48.501 275.211 48.501C271.068 48.501 267.711 51.859 267.711 56.001C267.711 60.143 271.068 63.501 275.211 63.501Z" fill="#012477"/>
</svg>
